; generated by PrusaSlicer 2.7.4+win64 on 2024-04-26 at 00:57:19 UTC

; 

; external perimeters extrusion width = 0.63mm
; perimeters extrusion width = 0.66mm
; infill extrusion width = 0.66mm
; solid infill extrusion width = 0.66mm
; top infill extrusion width = 0.60mm
; support material extrusion width = 0.54mm
; first layer extrusion width = 0.63mm

;TYPE:Custom
G90 ; use absolute coordinates
M83 ; extruder relative mode
M104 S150 ; set temporary nozzle temp to prevent oozing during homing and auto bed leveling
M140 S60 ; set final bed temp
G4 S30 ; allow partial nozzle warmup
G28 ; home all axis
G29 ; auto bed levelling
G1 Z50 F240
G1 X2.0 Y10 F3000
M104 S210 ; set final nozzle temp
M190 S60 ; wait for bed temp to stabilize
M109 S210 ; wait for nozzle temp to stabilize

; G0 is non extrude linear move and G1 is extruding linear motion
; parameters are the final position for all the XYZ moves, then
; the amount of extrusion, speed (feed rate in set units)
; G90 and G91 are absolute and relative positioning



; ORIGINAL EXTRUDE LINE
;G1 Z0.28 F240
;G92 E0
;G1 X2.0 Y140 E10 F1500 ; prime the nozzle
;G1 X2.3 Y140 F5000
;G92 E0
;G1 X2.3 Y10 E10 F1200 ; prime the nozzle
;G92 E0


;THICK FRONT LINE. Starts at the home position
G1 X40 Y5 Z0.28 F240
G92 E0
G1 X180 E15 F1500 ; prime the nozzle

G1 X40 Y5.3 Z0.48 F5000; return to start position (incremented)
G92 E0; reset extrusion count
G1 X180 Y5.3 E15 F1200 ; prime the nozzle

G1 X40 Y5.3 Z0.68 F5000; return to start position (incremented)
G92 E0; reset extrusion count
G1 X180 Y5.3 E15 F1200 ; prime the nozzle

G92 E0
G X181 Z0.28 ; I put this in to match starting position of last line in case of relative movements.
G21 ; set units to millimeters
G90 ; use absolute coordinates
M83 ; use relative distances for extrusion
; Filament gcode
M107
;LAYER_CHANGE
;Z:0.3
;HEIGHT:0.3
G1 E-5 F3600
G1 Z.3 F9000
G1 X116.245 Y102.586
G1 Z.3
G1 E5 F2400
M204 S500
;TYPE:Support material
;WIDTH:0.63
G1 F997
G1 X116.833 Y102.683 E.04204
G1 X117.868 Y103.095 E.07859
G1 X118.79 Y103.719 E.07854
G1 X119.557 Y104.528 E.07865
G1 X120.132 Y105.482 E.07858
G1 X120.489 Y106.538 E.07864
G1 X120.61 Y107.646 E.07863
G1 X120.491 Y108.755 E.07869
G1 X120.137 Y109.807 E.0783
G1 X110.806 Y109.807 E.65828
G1 X110.568 Y109.292 E.04002
G1 X110.329 Y108.203 E.07865
G1 X110.33 Y107.089 E.07859
G1 X110.571 Y106.001 E.07862
G1 X111.039 Y104.99 E.07859
G1 X111.714 Y104.103 E.07863
G1 X112.564 Y103.382 E.07863
G1 X113.548 Y102.861 E.07855
G1 X114.621 Y102.563 E.07856
G1 X115.733 Y102.503 E.07856
G1 X116.162 Y102.573 E.03066
G1 X116.162 Y102.573 F9000
G1 X119.899 Y109.552
G1 F997
G1 X119.899 Y106.383 E.22356
G1 X119.668 Y105.698 E.051
G1 X119.271 Y105.039 E.05428
G1 X119.271 Y109.298 E.30046
G1 X118.642 Y109.298 E.04437
G1 X118.642 Y104.303 E.35238
G1 X118.014 Y103.808 E.05641
G1 X118.014 Y109.298 E.3873
G1 X117.385 Y109.298 E.04437
G1 X117.385 Y103.45 E.41256
G1 X116.757 Y103.2 E.04769
G1 X116.757 Y109.298 E.4302
G1 X116.128 Y109.298 E.04437
G1 X116.128 Y103.083 E.43845
G1 X115.5 Y103.025 E.04449
G1 X115.5 Y109.298 E.44254
G1 X114.872 Y109.298 E.0443
G1 X114.872 Y103.059 E.44014
G1 X114.243 Y103.196 E.04541
G1 X114.243 Y109.298 E.43048
G1 X113.615 Y109.298 E.0443
G1 X113.615 Y103.401 E.41602
G1 X112.986 Y103.734 E.05021
G1 X112.986 Y109.298 E.39252
G1 X112.358 Y109.298 E.0443
G1 X112.358 Y104.225 E.35789
G1 X111.729 Y104.924 E.06634
G1 X111.729 Y109.298 E.30857
G1 X111.131 Y109.298 E.04219
G1 X111.101 Y109.232 E.00511
G1 X111.101 Y105.462 E.26596
G1 E-3.5 F3600
;WIPE_START
G1 F7200
G1 X111.101 Y108.62 E-1.5
;WIPE_END
G1 X118.854 Y118.854 F9000
G1 E5 F2400
;TYPE:Perimeter
;WIDTH:0.63
G1 F997
G1 X112.146 Y118.854 E.47323
G1 X112.146 Y112.146 E.47323
G1 X118.854 Y112.146 E.47323
G1 X118.854 Y115.5 E.23662
G1 X118.854 Y118.764 E.23027
G1 X118.854 Y118.764 F9000
G1 X119.419 Y119.419
G1 F997
G1 X111.581 Y119.419 E.55295
G1 X111.581 Y111.581 E.55295
G1 X119.419 Y111.581 E.55295
G1 X119.419 Y115.5 E.27647
G1 X119.419 Y119.329 E.27012
G1 X119.419 Y119.329 F9000
G1 X119.985 Y119.985
;TYPE:External perimeter
G1 F997
G1 X111.015 Y119.985 E.63281
G1 X111.015 Y111.015 E.63281
G1 X119.985 Y111.015 E.63281
G1 X119.985 Y115.5 E.3164
G1 X119.985 Y119.895 E.31005
G1 E-3.5 F3600
;WIPE_START
G1 F7200
G1 X119.985 Y119.985 E-.04275
G1 X116.917 Y119.985 E-1.45725
;WIPE_END
G1 X117.529 Y112.327 F9000
G1 E5 F2400
;TYPE:Solid infill
;WIDTH:0.630251
G1 F997
G1 X118.418 Y113.217 E.08878
G1 X118.418 Y114.017 E.05646
G1 X116.983 Y112.582 E.14323
G1 X116.183 Y112.582 E.05646
G1 X118.418 Y114.817 E.22308
G1 X118.418 Y115.617 E.05646
G1 X115.383 Y112.582 E.30293
G1 X114.582 Y112.582 E.05653
G1 X118.418 Y116.418 E.38288
G1 X118.418 Y117.218 E.05646
G1 X113.782 Y112.582 E.46273
G1 X112.982 Y112.582 E.05646
G1 X118.418 Y118.018 E.54258
G1 X118.418 Y118.418 E.02823
G1 X118.018 Y118.418 E.02823
G1 X112.582 Y112.982 E.54258
G1 X112.582 Y113.782 E.05646
G1 X117.218 Y118.418 E.46273
G1 X116.418 Y118.418 E.05646
G1 X112.582 Y114.582 E.38288
G1 X112.582 Y115.383 E.05653
G1 X115.617 Y118.418 E.30293
G1 X114.817 Y118.418 E.05646
G1 X112.582 Y116.183 E.22308
G1 X112.582 Y116.983 E.05646
G1 X114.017 Y118.418 E.14323
G1 X113.216 Y118.418 E.05653
G1 X112.327 Y117.529 E.08873
M106 S255
;LAYER_CHANGE
;Z:0.5
;HEIGHT:0.2
;BEFORE_LAYER_CHANGE
G92 E0
;0.5


G1 E-3.5 F3600
;WIPE_START
G1 F7200
G1 X113.216 Y118.418 E-.59719
G1 X114.017 Y118.418 E-.38047
G1 X113.239 Y117.641 E-.52234
;WIPE_END
G1 Z.5 F9000
;AFTER_LAYER_CHANGE
;0.5
M104 S205 ; set temperature
G1 Z.5
G1 X114.535 Y108.263
G1 E5 F2400
;TYPE:Support material
;WIDTH:0.54
G1 F900
G1 X114.354 Y107.773 E.02159
G1 X114.354 Y107.533 E.00992
G1 X114.507 Y107.082 E.01968
G1 X114.652 Y106.892 E.00988
G1 X115.046 Y106.625 E.01967
G1 X115.531 Y106.551 E.02028
G1 X115.618 Y106.018 E.02232
G1 X116.228 Y106.195 E.02625
G1 X116.523 Y106.395 E.01473
G1 X116.953 Y106.96 E.02935
G1 X117.106 Y107.653 E.02933
G1 X116.954 Y108.346 E.02932
G1 X116.77 Y108.653 E.01479
G1 X116.252 Y109.098 E.02823
G1 X115.545 Y109.303 E.03043
G1 X114.843 Y109.188 E.0294
G1 X114.534 Y109.024 E.01446
G1 X114.04 Y108.504 E.02965
G1 X113.814 Y107.831 E.02934
G1 X113.814 Y107.474 E.01476
G1 X114.041 Y106.802 E.02932
G1 X114.53 Y106.287 E.02935
G1 X114.845 Y106.12 E.01474
G1 X115.545 Y106.006 E.02931
G1 X115.545 Y106.006 F9000
G1 X115.953 Y105.525
G1 F900
G1 X116.482 Y105.715 E.02323
G1 X116.875 Y105.981 E.01961
G1 X117.201 Y106.325 E.01959
G1 X117.446 Y106.731 E.0196
G1 X117.598 Y107.18 E.01959
G1 X117.649 Y107.652 E.01962
G1 X117.599 Y108.124 E.01962
G1 X117.448 Y108.574 E.01962
G1 X117.203 Y108.981 E.01963
G1 X116.509 Y109.576 E.03778
G1 X116.041 Y109.769 E.02092
G1 X115.574 Y109.845 E.01956
G1 X115.1 Y109.82 E.01962
G1 X114.642 Y109.692 E.01966
G1 X114.225 Y109.471 E.01951
G1 X113.834 Y109.126 E.02155
G1 X113.375 Y108.353 E.03716
G1 X113.274 Y107.889 E.01963
G1 X113.274 Y107.415 E.01959
G1 X113.377 Y106.952 E.0196
G1 X113.576 Y106.521 E.01962
G1 X113.864 Y106.144 E.01961
G1 X114.225 Y105.838 E.01956
G1 X114.644 Y105.616 E.0196
G1 X115.101 Y105.489 E.0196
G1 X115.88 Y105.513 E.03221
G1 E-3.5 F3600
;WIPE_START
G1 F7200
G1 X115.101 Y105.489 E-.3702
G1 X114.644 Y105.616 E-.2253
G1 X114.225 Y105.838 E-.22523
G1 X113.864 Y106.144 E-.22479
G1 X113.576 Y106.521 E-.22535
G1 X113.377 Y106.952 E-.22549
G1 X113.375 Y106.959 E-.00364
;WIPE_END
G1 X118.966 Y118.966 F9000
G1 E5 F2400
;TYPE:Perimeter
;WIDTH:0.659999
G1 F900
G1 X112.034 Y118.966 E.35568
G1 X112.034 Y112.034 E.35568
G1 X118.966 Y112.034 E.35568
G1 X118.966 Y115.5 E.17784
G1 X118.966 Y118.876 E.17322
G1 X118.966 Y118.876 F9000
G1 X119.583 Y119.583
G1 F900
G1 X111.417 Y119.583 E.419
G1 X111.417 Y111.417 E.419
G1 X119.583 Y111.417 E.419
G1 X119.583 Y115.5 E.2095
G1 X119.583 Y119.493 E.20488
G1 X120.185 Y120.185 F9000
;TYPE:External perimeter
;WIDTH:0.629999
G1 F900
G1 X110.815 Y120.185 E.4574
G1 X110.815 Y110.815 E.4574
G1 X120.185 Y110.815 E.4574
G1 X120.185 Y115.5 E.2287
G1 X120.185 Y120.095 E.22431
G1 E-3.5 F3600
;WIPE_START
G1 F7200
G1 X120.185 Y120.185 E-.04275
G1 X117.117 Y120.185 E-1.45725
;WIPE_END
G1 X112.677 Y112.559 F9000
G1 E5 F2400
;TYPE:Solid infill
;WIDTH:0.80972
G1 F900
G1 X112.609 Y112.492 E.00609
G1 X112.516 Y112.516 E.00612
G1 X112.492 Y112.609 E.00612
G1 X112.559 Y112.677 E.00609
G1 X112.652 Y112.652 E.00614
;WIDTH:0.659999
G1 X112.509 Y113.638 E.05112
G1 X113.638 Y112.509 E.08192
G1 X114.51 Y112.509 E.04474
G1 X112.509 Y114.51 E.1452
G1 X112.509 Y115.383 E.04479
G1 X115.383 Y112.509 E.20855
G1 X116.256 Y112.509 E.04479
G1 X112.509 Y116.256 E.2719
G1 X112.509 Y117.128 E.04474
G1 X117.128 Y112.509 E.33517
G1 X118.001 Y112.509 E.04479
G1 X112.509 Y118.001 E.39852
G1 X112.486 Y118.202 E.01038
;WIDTH:0.624306
G1 X112.464 Y118.403 E.00977
;WIDTH:0.588613
G1 X112.441 Y118.604 E.00918
;WIDTH:0.55292
G1 X112.396 Y118.559 E.0027
G1 X112.334 Y118.576 E.00273
G1 X112.317 Y118.637 E.00269
G1 X112.363 Y118.683 E.00276
G1 X112.424 Y118.666 E.00269
;WIDTH:0.659999
G1 X112.892 Y118.491 E.02564
G1 X118.491 Y112.892 E.40628
G1 X118.549 Y112.736 E.00854
;WIDTH:0.624306
G1 X118.608 Y112.58 E.00806
;WIDTH:0.588613
G1 X118.666 Y112.424 E.00755
;WIDTH:0.55292
G1 X118.604 Y112.441 E.00273
G1 X118.559 Y112.396 E.0027
G1 X118.576 Y112.334 E.00273
G1 X118.637 Y112.317 E.00269
G1 X118.683 Y112.363 E.00276
G1 X118.683 Y112.363 F9000
G1 X118.491 Y113.765
;WIDTH:0.659999
G1 F900
G1 X113.765 Y118.491 E.34294
G1 X114.638 Y118.491 E.04479
G1 X118.491 Y114.638 E.27959
G1 X118.491 Y115.51 E.04474
G1 X115.51 Y118.491 E.21631
G1 X116.383 Y118.491 E.04479
G1 X118.491 Y116.383 E.15296
G1 X118.816 Y117.002 E.03587
;WIDTH:0.55292
G1 X118.771 Y116.957 E.0027
G1 X118.709 Y116.974 E.00273
G1 X118.692 Y117.035 E.00269
G1 X118.738 Y117.08 E.00273
G1 X118.799 Y117.064 E.00267
;WIDTH:0.588613
G1 X118.696 Y117.128 E.0055
;WIDTH:0.624306
G1 X118.594 Y117.192 E.00582
;WIDTH:0.659999
G1 X118.491 Y117.256 E.00622
G1 X117.256 Y118.491 E.08962
G1 X117.192 Y118.594 E.00622
;WIDTH:0.624306
G1 X117.128 Y118.696 E.00582
;WIDTH:0.588613
G1 X117.064 Y118.799 E.0055
;WIDTH:0.55292
G1 X117.002 Y118.816 E.00273
G1 X116.957 Y118.771 E.0027
G1 X116.974 Y118.709 E.00273
G1 X117.035 Y118.692 E.00269
G1 X117.08 Y118.738 E.00273
G1 X117.08 Y118.738 F9000
G1 X118.458 Y118.458
;WIDTH:0.872224
G1 F900
G1 X118.358 Y118.485 E.00714
G1 X118.284 Y118.411 E.00722
G1 X118.311 Y118.311 E.00714
G1 X118.411 Y118.284 E.00714
G1 X118.485 Y118.358 E.00722
;LAYER_CHANGE
;Z:0.7
;HEIGHT:0.2
;BEFORE_LAYER_CHANGE
G92 E0
;0.7


G1 E-3.5 F3600
;WIPE_START
G1 F7200
G1 X118.411 Y118.284 E-.04971
G1 X118.311 Y118.311 E-.0492
G1 X118.284 Y118.411 E-.0492
G1 X118.358 Y118.485 E-.04971
G1 X118.458 Y118.458 E-.0492
;WIPE_END
G1 E-1.25298 F3600
G1 Z.7 F9000
;AFTER_LAYER_CHANGE
;0.7
G1 Z.7
G1 X114.544 Y108.262
G1 E5 F2400
;TYPE:Support material
;WIDTH:0.54
G1 F900
G1 X114.358 Y107.771 E.0217
G1 X114.408 Y107.299 E.01962
G1 X114.508 Y107.082 E.00988
G1 X114.834 Y106.736 E.01965
G1 X115.046 Y106.624 E.00991
G1 X115.531 Y106.55 E.02028
G1 X115.618 Y106.017 E.02232
G1 X116.228 Y106.195 E.02626
G1 X116.523 Y106.396 E.01475
G1 X116.951 Y106.962 E.02933
G1 X117.101 Y107.654 E.02927
G1 X116.946 Y108.345 E.02927
G1 X116.517 Y108.905 E.02916
G1 X116.223 Y109.103 E.01465
G1 X115.544 Y109.291 E.02912
G1 X115.19 Y109.272 E.01465
G1 X114.538 Y109.014 E.02898
G1 X114.047 Y108.501 E.02935
G1 X113.818 Y107.832 E.02923
G1 X113.817 Y107.476 E.01471
G1 X114.042 Y106.803 E.02933
G1 X114.529 Y106.287 E.02933
G1 X114.844 Y106.12 E.01474
G1 X115.545 Y106.005 E.02936
G1 X115.545 Y106.005 F9000
G1 X115.996 Y105.532
G1 F900
G1 X116.484 Y105.716 E.02156
G1 X116.876 Y105.983 E.0196
G1 X117.202 Y106.328 E.01962
G1 X117.445 Y106.735 E.01959
G1 X117.595 Y107.185 E.01961
G1 X117.645 Y107.656 E.01958
G1 X117.592 Y108.127 E.01959
G1 X117.401 Y108.637 E.02251
G1 X116.868 Y109.32 E.03581
G1 X116.476 Y109.584 E.01953
G1 X116.038 Y109.757 E.01946
G1 X115.573 Y109.833 E.01947
G1 X115.103 Y109.808 E.01945
G1 X114.648 Y109.683 E.0195
G1 X114.235 Y109.465 E.0193
G1 X113.87 Y109.158 E.01971
G1 X113.582 Y108.783 E.01954
G1 X113.382 Y108.355 E.01953
G1 X113.279 Y107.893 E.01956
G1 X113.277 Y107.419 E.01959
G1 X113.378 Y106.955 E.01963
G1 X113.576 Y106.524 E.0196
G1 X113.862 Y106.146 E.01959
G1 X114.224 Y105.838 E.01965
G1 X114.643 Y105.615 E.01962
G1 X115.1 Y105.488 E.0196
G1 X115.923 Y105.52 E.03404
G1 E-3.5 F3600
;WIPE_START
G1 F7200
G1 X115.1 Y105.488 E-.39122
G1 X114.643 Y105.615 E-.2253
G1 X114.224 Y105.838 E-.22546
G1 X113.862 Y106.146 E-.22577
G1 X113.576 Y106.524 E-.22515
G1 X113.394 Y106.92 E-.2071
;WIPE_END
G1 X118.966 Y118.966 F9000
G1 E5 F2400
;TYPE:Perimeter
;WIDTH:0.659999
G1 F900
G1 X112.034 Y118.966 E.35568
G1 X112.034 Y112.034 E.35568
G1 X118.966 Y112.034 E.35568
G1 X118.966 Y115.5 E.17784
G1 X118.966 Y118.876 E.17322
G1 X118.966 Y118.876 F9000
G1 X119.583 Y119.583
G1 F900
G1 X111.417 Y119.583 E.419
G1 X111.417 Y111.417 E.419
G1 X119.583 Y111.417 E.419
G1 X119.583 Y115.5 E.2095
G1 X119.583 Y119.493 E.20488
G1 X120.185 Y120.185 F9000
;TYPE:External perimeter
;WIDTH:0.629999
G1 F900
G1 X110.815 Y120.185 E.4574
G1 X110.815 Y110.815 E.4574
G1 X120.185 Y110.815 E.4574
G1 X120.185 Y115.5 E.2287
G1 X120.185 Y120.095 E.22431
G1 E-3.5 F3600
;WIPE_START
G1 F7200
G1 X120.185 Y120.185 E-.04275
G1 X117.117 Y120.185 E-1.45725
;WIPE_END
G1 X112.559 Y118.323 F9000
G1 E5 F2400
;TYPE:Solid infill
;WIDTH:0.80972
G1 F900
G1 X112.492 Y118.391 E.00609
G1 X112.516 Y118.484 E.00612
G1 X112.609 Y118.508 E.00612
G1 X112.677 Y118.441 E.00609
G1 X112.652 Y118.348 E.00614
;WIDTH:0.659999
G1 X113.638 Y118.491 E.05112
G1 X112.509 Y117.362 E.08192
G1 X112.509 Y116.49 E.04474
G1 X114.51 Y118.491 E.1452
G1 X115.383 Y118.491 E.04479
G1 X112.509 Y115.617 E.20855
G1 X112.509 Y114.744 E.04479
G1 X116.256 Y118.491 E.2719
G1 X117.128 Y118.491 E.04474
G1 X112.509 Y113.872 E.33517
G1 X112.509 Y112.999 E.04479
G1 X118.001 Y118.491 E.39852
G1 X118.202 Y118.514 E.01038
;WIDTH:0.624306
G1 X118.403 Y118.536 E.00977
;WIDTH:0.588613
G1 X118.604 Y118.559 E.00918
;WIDTH:0.55292
G1 X118.559 Y118.604 E.0027
G1 X118.576 Y118.666 E.00273
G1 X118.637 Y118.683 E.00269
G1 X118.683 Y118.637 E.00276
G1 X118.666 Y118.576 E.00269
;WIDTH:0.659999
G1 X118.491 Y118.108 E.02564
G1 X112.892 Y112.509 E.40628
G1 X112.736 Y112.451 E.00854
;WIDTH:0.624306
G1 X112.58 Y112.392 E.00806
;WIDTH:0.588613
G1 X112.424 Y112.334 E.00755
;WIDTH:0.55292
G1 X112.441 Y112.396 E.00273
G1 X112.396 Y112.441 E.0027
G1 X112.334 Y112.424 E.00273
G1 X112.317 Y112.363 E.00269
G1 X112.363 Y112.317 E.00276
G1 X112.363 Y112.317 F9000
G1 X113.765 Y112.509
;WIDTH:0.659999
G1 F900
G1 X118.491 Y117.235 E.34294
G1 X118.491 Y116.362 E.04479
G1 X114.638 Y112.509 E.27959
G1 X115.51 Y112.509 E.04474
G1 X118.491 Y115.49 E.21631
G1 X118.491 Y114.617 E.04479
G1 X116.383 Y112.509 E.15296
G1 X117.256 Y112.509 E.04479
G1 X118.491 Y113.744 E.08962
G1 X118.573 Y113.803 E.00518
;WIDTH:0.624306
G1 X118.655 Y113.861 E.00486
;WIDTH:0.588613
G1 X118.738 Y113.92 E.00462
;WIDTH:0.55292
G1 X118.692 Y113.965 E.00273
G1 X118.709 Y114.026 E.00269
G1 X118.771 Y114.043 E.00273
G1 X118.816 Y113.998 E.0027
G1 X118.799 Y113.936 E.00273
G1 X118.799 Y113.936 F9000
G1 X118.458 Y112.542
;WIDTH:0.872226
G1 F900
G1 X118.485 Y112.642 E.00714
G1 X118.411 Y112.716 E.00722
G1 X118.311 Y112.689 E.00714
G1 X118.284 Y112.589 E.00714
G1 X118.358 Y112.515 E.00722
;LAYER_CHANGE
;Z:0.9
;HEIGHT:0.2
;BEFORE_LAYER_CHANGE
G92 E0
;0.9


G1 E-3.5 F3600
;WIPE_START
G1 F7200
G1 X118.284 Y112.589 E-.04971
G1 X118.311 Y112.689 E-.0492
G1 X118.411 Y112.716 E-.0492
G1 X118.485 Y112.642 E-.04971
G1 X118.458 Y112.542 E-.0492
;WIPE_END
G1 E-1.25298 F3600
G1 Z.9 F9000
;AFTER_LAYER_CHANGE
;0.9
G1 Z.9
G1 X114.554 Y108.253
G1 E5 F2400
;TYPE:Support material
;WIDTH:0.54
G1 F900
G1 X114.376 Y107.777 E.021
G1 X114.425 Y107.311 E.01937
G1 X114.523 Y107.096 E.00977
G1 X114.845 Y106.755 E.01939
G1 X115.052 Y106.644 E.00971
G1 X115.58 Y106.579 E.02199
G1 X115.668 Y106.046 E.02233
G1 X116.222 Y106.215 E.02394
G1 X116.514 Y106.414 E.01461
