; generated by PrusaSlicer 2.9.0 on 2025-02-07 at 07:42:48 UTC

; 

; external perimeters extrusion width = 0.45mm
; perimeters extrusion width = 0.45mm
; infill extrusion width = 0.45mm
; solid infill extrusion width = 0.45mm
; top infill extrusion width = 0.40mm
; first layer extrusion width = 0.70mm

M104 S200 ; set temperature
;TYPE:Custom
G28 ; home all axes
G1 Z5 F5000 ; lift nozzle
M109 S200 ; set temperature and wait for it to be reached
G21 ; set units to millimeters
G90 ; use absolute coordinates
M82 ; use absolute distances for extrusion
G92 E0
; Filament gcode
M107
;LAYER_CHANGE
;Z:0.35
;HEIGHT:0.35
G1 E-2 F2400
G1 Z.35 F7800
G1 X67.159 Y80.75
G1 E.00001 F2400
;TYPE:Skirt/Brim
;WIDTH:0.7
G1 F1800
G1 X68.349 Y79.935 E.13115
G1 X69.367 Y79.428 E.23456
G1 X70.734 Y78.97 E.36565
G1 X71.851 Y78.761 E.46898
G1 X73 Y78.688 E.57367
G1 X127.292 Y78.694 E5.51042
G1 X128.996 Y78.906 E5.66656
G1 X130.633 Y79.428 E5.8228
G1 X132.147 Y80.242 E5.9791
G1 X133.485 Y81.319 E6.13528
G1 X134.602 Y82.625 E6.29154
G1 X135.46 Y84.113 E6.44772
G1 X136.03 Y85.734 E6.60396
G1 X136.239 Y86.851 E6.70729
G1 X136.312 Y88 E6.81198
G1 X136.312 Y112 E8.99429
G1 X136.239 Y113.149 E9.09898
G1 X136.094 Y113.996 E9.17712
G1 X135.783 Y115.09 E9.28054
G1 X135.46 Y115.887 E9.35874
G1 X134.758 Y117.147 E9.48989
G1 X134.25 Y117.841 E9.56809
G1 X133.485 Y118.681 E9.6714
G1 X132.841 Y119.25 E9.74954
G1 X131.651 Y120.065 E9.88069
G1 X130.633 Y120.572 E9.9841
G1 X129.266 Y121.03 E10.11519
G1 X128.149 Y121.239 E10.21852
G1 X127 Y121.312 E10.32321
G1 X72.432 Y121.293 E15.28506
G1 X71.577 Y121.201 E15.36325
G1 X70.173 Y120.871 E15.49439
G1 X69.113 Y120.46 E15.59777
G1 X67.853 Y119.758 E15.72892
G1 X66.946 Y119.073 E15.83227
G1 X66.319 Y118.485 E15.91043
G1 X65.75 Y117.841 E15.98857
G1 X64.935 Y116.651 E16.11972
G1 X64.428 Y115.633 E16.22313
G1 X63.97 Y114.266 E16.35422
G1 X63.799 Y113.423 E16.43243
G1 X63.694 Y112.292 E16.53571
G1 X63.688 Y88 E18.74457
G1 X63.761 Y86.851 E18.84926
G1 X63.906 Y86.003 E18.92749
G1 X64.217 Y84.91 E19.03082
G1 X64.8 Y83.591 E19.16195
G1 X65.242 Y82.853 E19.24017
G1 X65.927 Y81.946 E19.34352
G1 X66.515 Y81.319 E19.42168
G1 X67.114 Y80.789 E19.49441
G1 E17.49441 F2400
G92 E0
G1 X67.114 Y80.789 F7800
G92 E0
G1 X72.208 Y110.977
G1 E2 F2400
;TYPE:Perimeter
;WIDTH:0.7
G1 F1800
G1 X72.09 Y110.615 E2.03462
G1 X72.031 Y110.106 E2.08121
G1 X72.025 Y89.999 E3.90953
G1 X72.082 Y89.442 E3.96044
G1 X72.28 Y88.805 E4.0211
G1 X72.602 Y88.248 E4.0796
G1 X72.975 Y87.826 E4.13081
G1 X73.463 Y87.454 E4.18661
G1 X74.049 Y87.183 E4.24532
G1 X74.441 Y87.082 E4.28213
G1 X74.999 Y87.025 E4.33313
G1 X125.001 Y87.025 E8.87979
G1 X125.558 Y87.082 E8.9307
G1 X126.194 Y87.279 E8.99124
G1 X126.75 Y87.601 E9.04966
G1 X127.2 Y88.011 E9.10502
G1 X127.478 Y88.376 E9.14674
G1 X127.721 Y88.806 E9.19165
G1 X127.918 Y89.442 E9.25219
G1 X127.975 Y89.999 E9.3031
G1 X127.975 Y110.001 E11.12187
G1 X127.918 Y110.558 E11.17278
G1 X127.721 Y111.194 E11.23332
G1 X127.398 Y111.751 E11.29187
G1 X126.988 Y112.202 E11.34729
G1 X126.527 Y112.538 E11.39916
G1 X126.194 Y112.721 E11.43371
G1 X125.615 Y112.91 E11.48909
G1 X125.001 Y112.975 E11.54523
G1 X74.999 Y112.975 E16.09189
G1 X74.563 Y112.939 E16.13167
G1 X73.92 Y112.768 E16.19217
G1 X73.462 Y112.545 E16.23849
G1 X73.005 Y112.199 E16.29061
G1 X72.637 Y111.805 E16.33963
G1 X72.279 Y111.194 E16.40402
G1 X72.227 Y111.034 E16.41932
G1 X72.227 Y111.034 F7800
G1 X72.796 Y110.771
;TYPE:External perimeter
G1 F1800
G1 X72.706 Y110.507 E16.44468
G1 X72.65 Y110.001 E16.49097
G1 X72.65 Y89.999 E18.30974
G1 X72.719 Y89.443 E18.36068
G1 X72.9 Y88.949 E18.40852
G1 X73.236 Y88.453 E18.463
G1 X73.722 Y88.03 E18.52159
G1 X74.178 Y87.801 E18.56799
G1 X74.511 Y87.703 E18.59955
G1 X74.999 Y87.65 E18.64418
G1 X125.001 Y87.65 E23.19084
G1 X125.557 Y87.719 E23.24178
G1 X126.05 Y87.9 E23.28953
G1 X126.489 Y88.183 E23.33702
G1 X126.85 Y88.551 E23.38389
G1 X127.131 Y89.013 E23.43306
G1 X127.297 Y89.512 E23.48088
G1 X127.35 Y89.999 E23.52542
G1 X127.35 Y110.001 E25.34419
G1 X127.294 Y110.507 E25.39048
G1 X127.131 Y110.987 E25.43657
G1 X126.869 Y111.418 E25.48243
G1 X126.502 Y111.804 E25.53086
G1 X126.052 Y112.1 E25.57984
G1 X125.557 Y112.281 E25.62776
G1 X125.001 Y112.35 E25.6787
G1 X74.999 Y112.35 E30.22536
G1 X74.702 Y112.329 E30.25243
G1 X74.191 Y112.205 E30.30024
G1 X73.721 Y111.969 E30.34806
G1 X73.291 Y111.608 E30.39911
G1 X72.992 Y111.198 E30.44525
G1 X72.869 Y110.987 E30.46746
G1 X72.815 Y110.828 E30.48273
G1 X72.708 Y110.443 F7800
G1 E28.48273 F2400
G92 E0
G1 X126.14 Y113.401 F7800
G1 E2 F2400
;TYPE:Perimeter
;WIDTH:0.698747
G1 F1800
G1 X126.4 Y113.31 E2.025
G1 X127.118 Y112.902 E2.09994
G1 X127.431 Y112.643 E2.13681
G1 X127.819 Y112.23 E2.18823
;WIDTH:0.689856
G1 X128.154 Y111.713 E2.24334
G1 X128.405 Y111.113 E2.30152
G1 X128.375 Y112.257 E2.40389
G1 X128.189 Y112.736 E2.44986
;WIDTH:0.698747
G1 X127.84 Y113.113 E2.49648
G1 X127.404 Y113.332 E2.54076
G1 X126.963 Y113.401 E2.58127
G1 X126.2 Y113.401 E2.65051
G1 E.65051 F2400
G92 E0
G1 X126.2 Y113.401 F7800
G1 X128.47 Y89.379
G1 E2 F2400
;WIDTH:0.560879
G1 F1800
G1 X128.485 Y89.689 E2.02194
;WIDTH:0.530662
G1 X128.5 Y89.999 E2.04251
;WIDTH:0.500445
G1 X128.5 Y110.001 E3.28047
;WIDTH:0.530662
G1 X128.485 Y110.311 E3.30104
;WIDTH:0.560879
G1 X128.47 Y110.621 E3.32298
;WIDTH:0.574021
G1 X128.463 Y110.712 E3.32961
G1 E1.32961 F2400
G92 E0
G1 X128.463 Y110.712 F7800
G1 X126.116 Y86.595
G1 E2 F2400
;WIDTH:0.689939
G1 F1800
G1 X127.257 Y86.625 E2.10212
G1 X127.736 Y86.811 E2.14809
;WIDTH:0.699152
G1 X128.112 Y87.16 E2.19467
G1 X128.332 Y87.596 E2.23902
G1 X128.401 Y88.041 E2.27991
G1 X128.401 Y88.859 E2.35419
G1 X128.31 Y88.6 E2.37912
G1 X127.915 Y87.899 E2.45219
G1 X127.642 Y87.569 E2.49108
G1 X127.23 Y87.181 E2.54247
;WIDTH:0.689939
G1 X126.713 Y86.846 E2.59758
G1 X126.171 Y86.619 E2.65015
G1 E.65015 F2400
G92 E0
G1 X126.171 Y86.619 F7800
G1 X74.287 Y86.537
G1 E2 F2400
;WIDTH:0.574021
G1 F1800
G1 X74.561 Y86.521 E2.01993
;WIDTH:0.541844
G1 X74.834 Y86.505 E2.0385
;WIDTH:0.509667
G1 X74.999 Y86.5 E2.04894
;WIDTH:0.500417
G1 X125.001 Y86.5 E5.14344
;WIDTH:0.529937
G1 X125.311 Y86.515 E5.16398
;WIDTH:0.560147
G1 X125.621 Y86.531 E5.18589
G1 E3.18589 F2400
G92 E0
G1 X125.621 Y86.531 F7800
G1 X71.594 Y88.888
G1 E2 F2400
;WIDTH:0.689435
G1 F1800
G1 X71.623 Y87.766 E2.10033
G1 X71.75 Y87.387 E2.13606
;WIDTH:0.70004
G1 X71.976 Y87.053 E2.17273
G1 X72.264 Y86.812 E2.20688
;WIDTH:0.691699
G1 X72.728 Y86.632 E2.25153
G1 X73.073 Y86.596 E2.28265
G1 X73.852 Y86.596 E2.35254
G1 X73.635 Y86.679 E2.37339
G1 X73.162 Y86.911 E2.42066
;WIDTH:0.69225
G1 X72.588 Y87.341 E2.48507
G1 X72.18 Y87.772 E2.53837
;WIDTH:0.689435
G1 X71.845 Y88.289 E2.59344
G1 X71.618 Y88.832 E2.64605
G1 E.64605 F2400
G92 E0
G1 X71.618 Y88.832 F7800
G1 X71.537 Y110.712
G1 E2 F2400
;WIDTH:0.574021
G1 F1800
G1 X71.521 Y110.439 E2.01985
;WIDTH:0.541856
G1 X71.505 Y110.165 E2.03849
;WIDTH:0.509691
G1 X71.5 Y110.001 E2.04887
;WIDTH:0.500445
G1 X71.5 Y89.999 E3.28683
;WIDTH:0.530661
G1 X71.515 Y89.689 E3.3074
;WIDTH:0.560877
G1 X71.53 Y89.379 E3.32934
G1 E1.32934 F2400
G92 E0
G1 X71.53 Y89.379 F7800
G1 X71.625 Y111.181
G1 E2 F2400
;WIDTH:0.677822
G1 F1800
G1 X71.7 Y111.396 E2.01997
G1 X72.003 Y111.951 E2.07543
;WIDTH:0.696013
G1 X72.365 Y112.445 E2.13076
G1 X72.777 Y112.811 E2.18055
;WIDTH:0.691185
G1 X73.239 Y113.128 E2.23078
G1 X73.874 Y113.405 E2.29289
G1 X72.772 Y113.377 E2.39171
G1 X72.495 Y113.304 E2.41739
;WIDTH:0.697867
G1 X72.084 Y113.048 E2.46127
G1 X71.774 Y112.674 E2.50529
;WIDTH:0.680408
G1 X71.658 Y112.408 E2.53085
;WIDTH:0.677822
G1 X71.589 Y111.963 E2.57034
G1 X71.589 Y111.078 E2.64796
G1 X71.605 Y111.124 E2.65223
G1 E.65223 F2400
G92 E0
G1 X71.605 Y111.124 F7800
G1 X125.712 Y113.463
G1 E2 F2400
;WIDTH:0.574021
G1 F1800
G1 X125.439 Y113.479 E2.01985
;WIDTH:0.541856
G1 X125.165 Y113.495 E2.03849
;WIDTH:0.509691
G1 X125.001 Y113.5 E2.04887
;WIDTH:0.500445
G1 X74.999 Y113.5 E5.14358
;WIDTH:0.525468
G1 X74.72 Y113.487 E5.16188
;WIDTH:0.550491
G1 X74.441 Y113.475 E5.1812
G1 E3.1812 F2400
G92 E0
G1 X74.441 Y113.475 F7800
G1 X126.971 Y85.987
G1 E2 F2400
;WIDTH:0.7
G1 F1800
G1 X127.292 Y86.006 E2.02924
G1 X127.65 Y86.093 E2.06274
G1 X127.987 Y86.243 E2.09628
G1 X128.292 Y86.454 E2.13
G1 X128.554 Y86.718 E2.16382
G1 X128.809 Y87.099 E2.20551
G1 X128.959 Y87.527 E2.24675
G1 X129.025 Y88.041 E2.29387
G1 X129.025 Y111.785 E4.4529
G1 X128.994 Y112.291 E4.499
G1 X128.907 Y112.65 E4.53259
G1 X128.757 Y112.987 E4.56613
G1 X128.546 Y113.292 E4.59985
G1 X128.282 Y113.554 E4.63367
G1 X127.973 Y113.765 E4.66769
G1 X127.553 Y113.944 E4.7092
G1 X126.977 Y114.025 E4.76209
G1 X73.633 Y114.025 E9.61263
G1 X72.715 Y113.995 E9.69615
G1 X72.351 Y113.908 E9.73018
G1 X71.936 Y113.718 E9.77168
G1 X71.498 Y113.339 E9.82435
G1 X71.251 Y112.998 E9.86264
G1 X71.056 Y112.553 E9.90682
G1 X70.975 Y111.977 E9.95971
G1 X70.975 Y88.217 E12.1202
G1 X71.013 Y87.629 E12.17378
G1 X71.195 Y87.11 E12.22379
G1 X71.477 Y86.677 E12.27078
G1 X71.836 Y86.357 E12.31451
G1 X72.191 Y86.155 E12.35165
G1 X72.561 Y86.034 E12.38705
G1 X73.044 Y85.975 E12.4313
G1 X126.785 Y85.976 E17.31794
G1 X126.911 Y85.983 E17.32941
G1 X126.911 Y85.983 F7800
G1 X126.999 Y85.363
;TYPE:External perimeter
G1 F1800
G1 X127.351 Y85.384 E17.36147
G1 X127.821 Y85.492 E17.40532
G1 X128.266 Y85.684 E17.44939
G1 X128.669 Y85.955 E17.49355
G1 X129.016 Y86.297 E17.53785
G1 X129.296 Y86.698 E17.58232
G1 X129.497 Y87.145 E17.62689
G1 X129.589 Y87.495 E17.6598
G1 X129.65 Y88.041 E17.70976
G1 X129.65 Y111.785 E19.86879
G1 X129.616 Y112.349 E19.92017
G1 X129.508 Y112.821 E19.9642
G1 X129.316 Y113.266 E20.00827
G1 X129.045 Y113.669 E20.05243
G1 X128.596 Y114.114 E20.10991
G1 X128.048 Y114.423 E20.16712
G1 X127.527 Y114.584 E20.2167
G1 X126.992 Y114.65 E20.26572
G1 X73.176 Y114.65 E25.15918
G1 X72.657 Y114.617 E25.20647
G1 X72.18 Y114.509 E25.25094
G1 X71.735 Y114.316 E25.29505
G1 X71.331 Y114.044 E25.33934
G1 X71.031 Y113.755 E25.37722
G1 X70.713 Y113.316 E25.42651
G1 X70.503 Y112.855 E25.47257
G1 X70.411 Y112.505 E25.50548
G1 X70.35 Y111.992 E25.55246
G1 X70.35 Y88.217 E27.71431
G1 X70.384 Y87.651 E27.76587
G1 X70.492 Y87.179 E27.8099
G1 X70.684 Y86.734 E27.85397
G1 X71.046 Y86.211 E27.91181
G1 X71.46 Y85.858 E27.96128
G1 X71.913 Y85.595 E28.00891
G1 X72.397 Y85.431 E28.05538
G1 X73.016 Y85.35 E28.11215
G1 X126.785 Y85.351 E33.00134
G1 X126.94 Y85.36 E33.01546
G1 X127.338 Y85.39 F7800
;LAYER_CHANGE
;Z:0.65
;HEIGHT:0.3
G1 Z.65 F7800
G1 E31.01546 F2400
G92 E0
G1 X72.191 Y110.983 F7800
G1 E2 F2400
;TYPE:Perimeter
;WIDTH:0.45
G1 F3600
G1 X72.141 Y110.864 E2.00621
G1 X72.073 Y110.61 E2.01886
G1 X72.011 Y110.121 E2.04257
G1 X72.004 Y89.999 E3.01037
G1 X72.052 Y89.512 E3.03391
G1 X72.226 Y88.893 E3.06484
G1 X72.585 Y88.237 E3.10081
G1 X72.923 Y87.858 E3.12523
G1 X73.261 Y87.571 E3.14656
G1 X73.821 Y87.256 E3.17746
G1 X74.381 Y87.069 E3.20586
G1 X74.999 Y87.004 E3.23575
G1 X125.001 Y87.004 E5.64067
G1 X125.56 Y87.061 E5.6677
G1 X126.2 Y87.259 E5.69992
G1 X126.759 Y87.582 E5.73097
G1 X127.215 Y87.996 E5.76059
G1 X127.496 Y88.364 E5.78286
G1 X127.741 Y88.8 E5.80691
G1 X127.939 Y89.44 E5.83913
G1 X127.996 Y89.999 E5.86616
G1 X127.996 Y110.001 E6.82819
G1 X127.939 Y110.56 E6.85522
G1 X127.741 Y111.2 E6.88744
G1 X127.416 Y111.762 E6.91866
G1 X127.004 Y112.215 E6.94811
G1 X126.636 Y112.496 E6.97038
G1 X126.2 Y112.741 E6.99443
G1 X125.619 Y112.931 E7.02383
G1 X125.001 Y112.996 E7.05372
G1 X74.999 Y112.996 E9.45864
G1 X74.558 Y112.959 E9.47993
G1 X73.911 Y112.787 E9.51213
G1 X73.452 Y112.564 E9.53667
G1 X72.993 Y112.216 E9.56437
G1 X72.594 Y111.768 E9.59322
G1 X72.391 Y111.456 E9.61112
G1 X72.215 Y111.038 E9.63293
G1 X72.215 Y111.038 F7800
G1 X72.56 Y110.854
G1 F3600
G1 X72.496 Y110.714 E9.64033
G1 X72.394 Y110.073 E9.67155
G1 X72.389 Y89.999 E10.63704
G1 X72.424 Y89.616 E10.65554
G1 X72.597 Y88.998 E10.68641
G1 X72.914 Y88.438 E10.71736
G1 X73.324 Y88.002 E10.74615
G1 X74.01 Y87.592 E10.78459
G1 X74.483 Y87.444 E10.80843
G1 X74.999 Y87.389 E10.83339
G1 X125.001 Y87.389 E13.23831
G1 X125.517 Y87.444 E13.26327
G1 X126.073 Y87.623 E13.29136
G1 X126.554 Y87.908 E13.31825
G1 X126.943 Y88.269 E13.34377
G1 X127.321 Y88.811 E13.37555
G1 X127.527 Y89.357 E13.40362
G1 X127.611 Y89.999 E13.43476
G1 X127.611 Y110.001 E14.39679
G1 X127.556 Y110.517 E14.42175
G1 X127.377 Y111.073 E14.44984
G1 X127.09 Y111.557 E14.4769
G1 X126.731 Y111.943 E14.50225
G1 X126.189 Y112.321 E14.53403
G1 X125.643 Y112.527 E14.5621
G1 X125.001 Y112.611 E14.59324
G1 X74.999 Y112.611 E16.99816
G1 X74.644 Y112.583 E17.01529
G1 X74.078 Y112.439 E17.04338
G1 X73.558 Y112.173 E17.07147
G1 X73.165 Y111.857 E17.09572
G1 X72.827 Y111.442 E17.12146
G1 X72.585 Y110.909 E17.14961
G1 X72.585 Y110.909 F7800
G1 X72.921 Y110.728
;TYPE:External perimeter
G1 F1800
G1 X72.852 Y110.564 E17.15817
G1 X72.777 Y110.025 E17.18434
G1 X72.775 Y89.999 E18.14752
G1 X72.795 Y89.72 E18.16097
G1 X72.969 Y89.102 E18.19185
G1 X73.243 Y88.639 E18.21773
G1 X73.597 Y88.275 E18.24215
G1 X74.199 Y87.928 E18.27557
G1 X74.526 Y87.827 E18.29203
G1 X74.999 Y87.775 E18.31492
G1 X125.001 Y87.775 E20.71984
G1 X125.516 Y87.837 E20.74479
G1 X125.984 Y88.006 E20.76872
G1 X126.403 Y88.275 E20.79267
G1 X126.752 Y88.63 E20.81661
G1 X127.013 Y89.055 E20.8406
G1 X127.173 Y89.526 E20.86452
G1 X127.225 Y89.999 E20.88741
G1 X127.225 Y110.001 E21.84944
G1 X127.163 Y110.516 E21.87439
G1 X126.994 Y110.984 E21.89832
G1 X126.725 Y111.403 E21.92227
G1 X126.37 Y111.752 E21.94621
G1 X125.945 Y112.013 E21.9702
G1 X125.474 Y112.173 E21.99412
G1 X125.001 Y112.225 E22.01701
G1 X74.999 Y112.225 E24.42193
G1 X74.73 Y112.207 E24.4349
G1 X74.245 Y112.092 E24.45887
G1 X73.796 Y111.869 E24.48298
G1 X73.412 Y111.557 E24.50678
G1 X73.102 Y111.156 E24.53116
G1 X72.944 Y110.783 E24.55064
G1 X72.836 Y110.398 F7800
G1 E22.55064 F2400
G92 E0
G1 X126.97 Y86.009 F7800
G1 E2 F2400
;TYPE:Perimeter
G1 F3600
G1 X127.29 Y86.027 E2.01542
G1 X127.644 Y86.113 E2.03294
G1 X127.977 Y86.262 E2.05049
G1 X128.279 Y86.471 E2.06815
G1 X128.539 Y86.732 E2.08587
G1 X128.79 Y87.109 E2.10765
G1 X128.938 Y87.531 E2.12916
G1 X129.004 Y88.041 E2.15389
G1 X129.004 Y111.785 E3.29589
G1 X128.973 Y112.289 E3.32018
G1 X128.887 Y112.644 E3.33775
G1 X128.738 Y112.977 E3.3553
G1 X128.478 Y113.347 E3.37705
G1 X128.066 Y113.682 E3.40259
G1 X127.547 Y113.923 E3.43011
G1 X126.977 Y114.004 E3.4578
G1 X73.633 Y114.004 E6.02346
G1 X72.714 Y113.973 E6.06769
G1 X72.278 Y113.865 E6.08929
G1 X71.88 Y113.649 E6.11107
G1 X71.504 Y113.314 E6.13529
G1 X71.254 Y112.962 E6.15606
G1 X71.077 Y112.547 E6.17776
G1 X70.996 Y111.977 E6.20545
G1 X70.996 Y88.276 E7.34539
G1 X71.026 Y87.72 E7.37217
G1 X71.128 Y87.319 E7.39207
G1 X71.306 Y86.934 E7.41247
G1 X71.595 Y86.584 E7.4343
G1 X71.863 Y86.364 E7.45098
G1 X72.205 Y86.172 E7.46984
G1 X72.557 Y86.056 E7.48767
G1 X73.045 Y85.996 E7.51132
G1 X126.785 Y85.998 E10.09603
G1 X126.91 Y86.005 E10.10205
G1 X126.91 Y86.005 F7800
G1 X126.987 Y85.624
G1 F3600
G1 X127.327 Y85.643 E10.11843
G1 X127.749 Y85.742 E10.13928
G1 X128.149 Y85.917 E10.16028
G1 X128.511 Y86.163 E10.18133
G1 X128.905 Y86.562 E10.2083
G1 X129.179 Y87.047 E10.23509
G1 X129.333 Y87.543 E10.26007
G1 X129.389 Y88.041 E10.28417
G1 X129.389 Y111.785 E11.42617
G1 X129.357 Y112.325 E11.45219
G1 X129.258 Y112.749 E11.47313
G1 X129.083 Y113.149 E11.49413
G1 X128.837 Y113.511 E11.51518
G1 X128.527 Y113.824 E11.53637
G1 X128.064 Y114.137 E11.56325
G1 X127.539 Y114.317 E11.58994
G1 X126.986 Y114.389 E11.61676
G1 X73.633 Y114.389 E14.18285
G1 X72.679 Y114.357 E14.22876
G1 X72.251 Y114.258 E14.24989
G1 X71.851 Y114.083 E14.27089
G1 X71.488 Y113.836 E14.29201
G1 X71.176 Y113.527 E14.31313
G1 X70.863 Y113.064 E14.34001
G1 X70.683 Y112.539 E14.3667
G1 X70.611 Y111.986 E14.39352
G1 X70.611 Y88.276 E15.53389
G1 X70.642 Y87.684 E15.5624
G1 X70.759 Y87.209 E15.58593
G1 X70.975 Y86.736 E15.61094
G1 X71.311 Y86.323 E15.63655
G1 X71.631 Y86.056 E15.65659
G1 X72.033 Y85.827 E15.67884
G1 X72.452 Y85.685 E15.70012
G1 X73.027 Y85.611 E15.728
G1 X126.785 Y85.613 E18.31357
G1 X126.927 Y85.621 E18.32041
