; generated by PrusaSlicer 2.9.0 on 2025-02-07 at 07:42:48 UTC

; 

; external perimeters extrusion width = 0.45mm
; perimeters extrusion width = 0.45mm
; infill extrusion width = 0.45mm
; solid infill extrusion width = 0.45mm
; top infill extrusion width = 0.40mm
; first layer extrusion width = 0.70mm

M104 S200 ; set temperature
;TYPE:Custom
G28 ; home all axes
G1 Z5 F5000 ; lift nozzle
M109 S200 ; set temperature and wait for it to be reached
G21 ; set units to millimeters
G90 ; use absolute coordinates
M82 ; use absolute distances for extrusion
G92 E0
; Filament gcode
M107
;LAYER_CHANGE
;Z:0.35
;HEIGHT:0.35
G1 E-2 F2400
G1 Z.35 F7800
G1 X66.515 Y77.071
G1 E.00001 F2400
;TYPE:Skirt/Brim
;WIDTH:0.7
G1 F1800
G1 X67.625 Y76.15 E.13115
G1 X68.349 Y75.686 E.20934
G1 X69.367 Y75.18 E.31271
G1 X70.734 Y74.721 E.44383
G1 X71.851 Y74.513 E.54714
G1 X73 Y74.439 E.65183
G1 X127.291 Y74.446 E5.58849
G1 X128.996 Y74.658 E5.74472
G1 X130.09 Y74.969 E5.84814
G1 X131.651 Y75.686 E6.00434
G1 X133.054 Y76.678 E6.16058
G1 X134.25 Y77.911 E6.31678
G1 X135.2 Y79.343 E6.47304
G1 X135.871 Y80.925 E6.6293
G1 X136.239 Y82.603 E6.78551
G1 X136.312 Y83.752 E6.8902
G1 X136.312 Y107.752 E9.07251
G1 X136.239 Y108.901 E9.1772
G1 X136.03 Y110.018 E9.28053
G1 X135.783 Y110.842 E9.35875
G1 X135.2 Y112.161 E9.48988
G1 X134.758 Y112.898 E9.56802
G1 X134.073 Y113.806 E9.67144
G1 X133.485 Y114.432 E9.74953
G1 X132.841 Y115.002 E9.82773
G1 X131.651 Y115.817 E9.95888
G1 X130.633 Y116.324 E10.06229
G1 X129.739 Y116.651 E10.14885
G1 X103.514 Y125.015 E12.65182
G1 X101.493 Y125.465 E12.84009
G1 X99.347 Y125.544 E13.03536
G1 X97.674 Y125.326 E13.18877
G1 X96.486 Y125.015 E13.30043
G1 X69.91 Y116.534 E15.83704
G1 X68.349 Y115.817 E15.99324
G1 X66.946 Y114.825 E16.14948
G1 X65.927 Y113.806 E16.28052
G1 X64.935 Y112.403 E16.43676
G1 X64.428 Y111.385 E16.54017
G1 X64.129 Y110.579 E16.61834
G1 X63.799 Y109.175 E16.74948
G1 X63.694 Y108.043 E16.85285
G1 X63.688 Y83.752 E19.06162
G1 X63.761 Y82.603 E19.16631
G1 X63.97 Y81.486 E19.26964
G1 X64.217 Y80.662 E19.34786
G1 X64.54 Y79.865 E19.42606
G1 X65.242 Y78.605 E19.55721
G1 X65.906 Y77.723 E19.6576
G1 X66.474 Y77.115 E19.73326
G1 E17.73326 F2400
G92 E0
G1 X66.474 Y77.115 F7800
G92 E0
G1 X96.981 Y115.095
G1 E2 F2400
;TYPE:Perimeter
;WIDTH:0.7
G1 F1800
G1 X96.885 Y114.82 E2.02649
G1 X96.795 Y114.232 E2.08058
G1 X96.781 Y113.897 E2.11107
G1 X96.838 Y113.388 E2.15764
G1 X97.042 Y112.73 E2.22028
G1 X97.364 Y112.164 E2.27949
G1 X97.549 Y111.913 E2.30784
G1 X97.911 Y111.55 E2.35446
G1 X98.509 Y111.147 E2.42003
G1 X99.181 Y110.887 E2.48555
G1 X99.862 Y110.785 E2.54816
G1 X100.605 Y110.839 E2.6159
G1 X101.302 Y111.056 E2.68228
G1 X101.925 Y111.42 E2.74789
G1 X102.451 Y111.913 E2.81344
G1 X102.813 Y112.445 E2.87195
G1 X102.956 Y112.728 E2.90078
G1 X103.162 Y113.388 E2.96365
G1 X103.219 Y113.897 E3.01022
G1 X103.162 Y114.616 E3.0758
G1 X102.995 Y115.164 E3.12789
G1 X102.817 Y115.553 E3.16679
G1 X102.544 Y115.983 E3.2131
G1 X102.089 Y116.453 E3.27258
G1 X101.491 Y116.856 E3.33815
G1 X100.819 Y117.117 E3.4037
G1 X100.105 Y117.221 E3.46931
G1 X99.386 Y117.163 E3.5349
G1 X98.728 Y116.96 E3.59751
G1 X98.082 Y116.588 E3.66529
G1 X97.585 Y116.127 E3.72693
G1 X97.328 Y115.784 E3.7659
G1 X97.063 Y115.329 E3.81378
G1 X97.001 Y115.152 E3.83083
G1 X97.001 Y115.152 F7800
G1 X97.573 Y114.884
;TYPE:External perimeter
G1 F1800
G1 X97.475 Y114.614 E3.85695
G1 X97.402 Y114.037 E3.90983
G1 X97.459 Y113.458 E3.96273
G1 X97.632 Y112.934 E4.01291
G1 X97.896 Y112.492 E4.05972
G1 X98.353 Y111.992 E4.12131
G1 X98.841 Y111.676 E4.17417
G1 X99.388 Y111.477 E4.2271
G1 X99.934 Y111.405 E4.27718
G1 X100.541 Y111.461 E4.33261
G1 X101.096 Y111.646 E4.38581
G1 X101.593 Y111.949 E4.43874
G1 X102.009 Y112.355 E4.4916
G1 X102.284 Y112.777 E4.5374
G1 X102.525 Y113.39 E4.59729
G1 X102.598 Y113.967 E4.65017
G1 X102.541 Y114.546 E4.70307
G1 X102.356 Y115.098 E4.75601
G1 X102.053 Y115.594 E4.80886
G1 X101.647 Y116.011 E4.86178
G1 X101.159 Y116.327 E4.91464
G1 X100.612 Y116.527 E4.9676
G1 X100.035 Y116.6 E5.02048
G1 X99.456 Y116.542 E5.07339
G1 X98.933 Y116.369 E5.12348
G1 X98.41 Y116.056 E5.1789
G1 X98.027 Y115.685 E5.22739
G1 X97.674 Y115.161 E5.28484
G1 X97.594 Y114.94 E5.30621
G1 X97.478 Y114.558 F7800
G1 E3.30621 F2400
G92 E0
G1 X95.98 Y111.196 F7800
G1 E2 F2400
;TYPE:Perimeter
G1 F1800
G1 X95.883 Y110.99 E2.0207
G1 X95.697 Y110.694 E2.05249
G1 X95.334 Y110.246 E2.10492
G1 X94.864 Y109.85 E2.1608
G1 X94.512 Y109.619 E2.19908
G1 X93.838 Y109.322 E2.26605
G1 X93.346 Y109.208 E2.31197
G1 X92.752 Y109.152 E2.36622
G1 X73.144 Y109.152 E4.14917
G1 X72.648 Y109.094 E4.19458
G1 X72.152 Y108.852 E4.24476
G1 X71.815 Y108.485 E4.29007
G1 X71.668 Y108.141 E4.32409
G1 X71.6 Y107.673 E4.36709
G1 X71.6 Y83.896 E6.52912
G1 X71.627 Y83.529 E6.56258
G1 X71.812 Y83.022 E6.61165
G1 X72.165 Y82.637 E6.65915
G1 X72.619 Y82.411 E6.70526
G1 X73.037 Y82.352 E6.74365
G1 X126.884 Y82.353 E11.63993
G1 X127.255 Y82.382 E11.67377
G1 X127.734 Y82.567 E11.72046
G1 X128.112 Y82.912 E11.767
G1 X128.34 Y83.37 E11.81352
G1 X128.4 Y83.821 E11.85489
G1 X128.4 Y107.607 E14.01774
G1 X128.394 Y107.75 E14.03075
G1 X128.299 Y108.255 E14.07747
G1 X128.124 Y108.565 E14.10984
G1 X127.719 Y108.94 E14.16003
G1 X127.388 Y109.084 E14.19285
G1 X126.927 Y109.152 E14.23522
G1 X107.143 Y109.156 E16.03417
G1 X106.555 Y109.232 E16.08808
G1 X105.926 Y109.417 E16.1477
G1 X105.59 Y109.56 E16.1809
G1 X105.155 Y109.832 E16.22755
G1 X104.875 Y110.054 E16.26004
G1 X104.383 Y110.578 E16.3254
G1 X104.091 Y111.037 E16.37487
G1 X103.831 Y111.663 E16.43651
G1 X103.685 Y112.263 E16.49266
G1 X103.658 Y112.843 E16.54546
G1 X103.452 Y112.298 E16.59844
G1 X103.178 Y111.851 E16.64611
G1 X102.893 Y111.471 E16.6893
G1 X102.393 Y110.986 E16.75264
G1 X101.913 Y110.674 E16.8047
G1 X101.509 Y110.466 E16.84602
G1 X101.033 Y110.3 E16.89186
G1 X100.67 Y110.218 E16.9257
G1 X99.82 Y110.161 E17.00316
G1 X99.311 Y110.22 E17.04975
G1 X98.975 Y110.297 E17.08109
G1 X98.38 Y110.51 E17.13856
G1 X97.94 Y110.766 E17.18485
G1 X97.469 Y111.109 E17.23783
G1 X97.107 Y111.471 E17.28438
G1 X96.881 Y111.756 E17.31745
G1 X96.593 Y112.225 E17.36749
G1 X96.342 Y112.842 E17.42806
G1 X96.296 Y112.168 E17.48949
G1 X96.133 Y111.521 E17.55016
G1 X96.005 Y111.251 E17.57733
G1 E15.57733 F2400
G92 E0
G1 X96.005 Y111.251 F7800
G1 X103.717 Y113.325
G1 E2 F2400
;WIDTH:0.568169
G1 F1800
G1 X103.73 Y113.581 E2.01839
;WIDTH:0.535715
G1 X103.742 Y113.838 E2.03563
;WIDTH:0.508321
G1 X103.734 Y114.265 E2.06255
G1 X103.658 Y114.817 E2.09768
;WIDTH:0.509275
G1 X103.495 Y115.338 E2.13217
G1 X103.264 Y115.834 E2.16674
;WIDTH:0.506225
G1 X102.966 Y116.292 E2.20102
;WIDTH:0.510195
G1 X102.597 Y116.695 E2.23561
G1 X102.204 Y117.028 E2.26822
;WIDTH:0.499879
G1 X101.77 Y117.3 E2.29988
;WIDTH:0.510701
G1 X101.208 Y117.542 E2.33866
G1 X100.68 Y117.685 E2.37333
;WIDTH:0.501559
G1 X100.16 Y117.743 E2.4058
;WIDTH:0.510803
G1 X99.591 Y117.72 E2.4419
G1 X99.052 Y117.627 E2.47658
;WIDTH:0.501035
G1 X98.556 Y117.456 E2.5091
;WIDTH:0.513233
G1 X98.052 Y117.194 E2.54531
G1 X97.603 Y116.882 E2.58017
;WIDTH:0.505211
G1 X97.212 Y116.5 E2.61438
;WIDTH:0.509791
G1 X96.88 Y116.066 E2.64894
G1 X96.606 Y115.593 E2.68352
;WIDTH:0.507139
G1 X96.416 Y115.08 E2.71791
;WIDTH:0.511541
G1 X96.294 Y114.52 E2.75431
G1 X96.258 Y113.838 E2.79768
;WIDTH:0.535708
G1 X96.27 Y113.582 E2.81486
;WIDTH:0.568155
G1 X96.283 Y113.325 E2.83332
G1 E.83332 F2400
G92 E0
G1 X96.283 Y113.325 F7800
G1 X95.415 Y111.468
G1 E2 F2400
;WIDTH:0.7
G1 F1800
G1 X95.208 Y111.083 E2.03975
G1 X94.775 Y110.578 E2.10024
G1 X94.241 Y110.182 E2.16069
G1 X93.766 Y109.956 E2.20852
G1 X93.278 Y109.829 E2.25437
G1 X92.752 Y109.777 E2.30243
G1 X73.157 Y109.777 E4.08419
G1 X72.786 Y109.753 E4.118
G1 X72.289 Y109.642 E4.16431
G1 X71.984 Y109.473 E4.19602
G1 X71.634 Y109.227 E4.23492
G1 X71.282 Y108.816 E4.28412
G1 X71.067 Y108.314 E4.33378
G1 X70.975 Y107.704 E4.38987
G1 X70.975 Y83.896 E6.55472
G1 X71.012 Y83.4 E6.59995
G1 X71.199 Y82.834 E6.65415
G1 X71.49 Y82.41 E6.70091
G1 X71.945 Y82.038 E6.75435
G1 X72.447 Y81.808 E6.80456
G1 X73.023 Y81.727 E6.85745
G1 X126.884 Y81.728 E11.75501
G1 X127.371 Y81.765 E11.79942
G1 X127.897 Y81.95 E11.85012
G1 X128.362 Y82.258 E11.90084
G1 X128.711 Y82.692 E11.95148
G1 X128.944 Y83.199 E12.00222
G1 X129.025 Y83.821 E12.05926
G1 X129.025 Y107.708 E14.23129
G1 X128.937 Y108.297 E14.28544
G1 X128.789 Y108.674 E14.32227
G1 X128.506 Y109.097 E14.36855
G1 X128.066 Y109.465 E14.42071
G1 X127.541 Y109.69 E14.47265
G1 X126.956 Y109.777 E14.52643
G1 X107.249 Y109.777 E16.31838
G1 X106.731 Y109.832 E16.36575
G1 X106.102 Y110.016 E16.42534
G1 X105.867 Y110.122 E16.44878
G1 X105.317 Y110.496 E16.50926
G1 X104.863 Y110.983 E16.5698
G1 X104.551 Y111.503 E16.62494
G1 X104.379 Y111.989 E16.67182
G1 X104.288 Y112.511 E16.72
G1 X104.262 Y114.307 E16.88333
G1 X104.17 Y114.931 E16.94068
G1 X103.991 Y115.528 E16.99735
G1 X103.726 Y116.093 E17.0541
G1 X103.382 Y116.613 E17.11079
G1 X102.965 Y117.078 E17.16758
G1 X102.486 Y117.477 E17.22427
G1 X101.954 Y117.802 E17.28096
G1 X101.38 Y118.045 E17.33764
G1 X100.776 Y118.203 E17.39441
G1 X100.156 Y118.271 E17.45112
G1 X99.533 Y118.249 E17.5078
G1 X98.919 Y118.135 E17.56458
G1 X98.329 Y117.934 E17.62126
G1 X97.774 Y117.649 E17.67799
G1 X97.267 Y117.286 E17.73469
G1 X96.818 Y116.853 E17.79141
G1 X96.437 Y116.359 E17.84814
G1 X96.131 Y115.815 E17.90489
G1 X95.922 Y115.269 E17.95805
G1 X95.843 Y114.94 E17.98882
G1 X95.738 Y114.325 E18.04555
G1 X95.712 Y112.511 E18.21051
G1 X95.587 Y111.87 E18.26989
G1 X95.463 Y111.558 E18.30042
G1 X95.443 Y111.521 E18.30424
G1 X95.443 Y111.521 F7800
G1 X94.853 Y111.739
;TYPE:External perimeter
G1 F1800
G1 X94.72 Y111.473 E18.33128
G1 X94.401 Y111.08 E18.37731
G1 X94.01 Y110.768 E18.4228
G1 X93.558 Y110.547 E18.46855
G1 X93.259 Y110.459 E18.49689
G1 X92.752 Y110.402 E18.54328
G1 X73.015 Y110.402 E20.33796
G1 X72.513 Y110.355 E20.38381
G1 X72.05 Y110.223 E20.42759
G1 X71.423 Y109.877 E20.49271
G1 X71.042 Y109.535 E20.53926
G1 X70.748 Y109.146 E20.5836
G1 X70.53 Y108.709 E20.62801
G1 X70.403 Y108.267 E20.66983
G1 X70.35 Y107.735 E20.71844
G1 X70.35 Y83.896 E22.88611
G1 X70.396 Y83.272 E22.943
G1 X70.69 Y82.462 E23.02135
G1 X71.024 Y81.99 E23.07393
G1 X71.405 Y81.637 E23.12116
G1 X71.819 Y81.381 E23.16542
G1 X72.275 Y81.204 E23.2099
G1 X73.008 Y81.102 E23.27719
G1 X126.884 Y81.103 E28.17611
G1 X127.189 Y81.12 E28.20389
G1 X127.719 Y81.214 E28.25283
G1 X128.175 Y81.391 E28.29731
G1 X128.589 Y81.647 E28.34157
G1 X128.949 Y81.975 E28.38585
G1 X129.242 Y82.363 E28.43006
G1 X129.459 Y82.799 E28.47434
G1 X129.593 Y83.27 E28.51887
G1 X129.65 Y83.821 E28.56924
G1 X129.65 Y107.736 E30.74382
G1 X129.604 Y108.238 E30.78966
G1 X129.47 Y108.709 E30.83419
G1 X129.252 Y109.146 E30.8786
G1 X128.961 Y109.531 E30.92248
G1 X128.412 Y109.99 E30.98755
G1 X127.956 Y110.222 E31.03407
G1 X127.487 Y110.355 E31.0784
G1 X126.985 Y110.402 E31.12425
G1 X107.249 Y110.402 E32.91884
G1 X106.907 Y110.432 E32.95006
G1 X106.241 Y110.63 E33.01324
G1 X105.813 Y110.894 E33.05897
G1 X105.436 Y111.26 E33.10675
G1 X105.15 Y111.701 E33.15454
G1 X105.01 Y112.076 E33.19094
G1 X104.913 Y112.52 E33.23226
G1 X104.886 Y114.358 E33.39941
G1 X104.782 Y115.067 E33.46457
G1 X104.576 Y115.752 E33.52961
G1 X104.272 Y116.399 E33.59461
G1 X103.878 Y116.996 E33.65965
G1 X103.4 Y117.529 E33.72475
G1 X102.851 Y117.986 E33.7897
G1 X102.24 Y118.359 E33.85479
G1 X101.582 Y118.638 E33.91978
G1 X100.89 Y118.819 E33.98482
G1 X100.179 Y118.898 E34.04987
G1 X99.464 Y118.872 E34.11493
G1 X98.761 Y118.742 E34.17994
G1 X98.084 Y118.511 E34.24498
G1 X97.448 Y118.184 E34.31001
G1 X96.866 Y117.767 E34.37511
G1 X96.351 Y117.271 E34.44013
G1 X95.914 Y116.705 E34.50515
G1 X95.564 Y116.081 E34.57021
G1 X95.309 Y115.413 E34.63523
G1 X95.2 Y114.924 E34.68079
G1 X95.114 Y114.363 E34.7324
G1 X95.077 Y112.446 E34.90674
G1 X94.955 Y111.943 E34.9538
G1 X94.88 Y111.793 E34.96905
G1 X94.684 Y111.444 F7800
G1 E32.96905 F2400
G92 E0
G1 X128.213 Y84.546 F7800
G1 E2 F2400
;TYPE:Solid infill
;WIDTH:0.701458
G1 F1800
G1 X126.488 Y82.822 E2.22228
G1 X125.602 Y82.822 E2.30303
G1 X127.932 Y85.151 E2.60329
G1 X127.932 Y86.037 E2.68404
G1 X124.716 Y82.822 E3.0985
G1 X123.831 Y82.822 E3.17916
G1 X127.932 Y86.922 E3.70769
G1 X127.932 Y87.808 E3.78844
G1 X122.945 Y82.822 E4.43117
G1 X122.059 Y82.822 E4.51192
G1 X127.932 Y88.694 E5.26885
G1 X127.932 Y89.58 E5.3496
G1 X121.173 Y82.822 E6.22073
G1 X120.287 Y82.822 E6.30148
G1 X127.932 Y90.466 E7.28681
G1 X127.932 Y91.351 E7.36747
G1 X119.402 Y82.821 E8.46693
G1 X118.516 Y82.821 E8.54768
G1 X127.932 Y92.237 E9.76134
G1 X127.932 Y93.123 E9.84209
G1 X117.63 Y82.821 E11.16995
G1 X116.744 Y82.821 E11.2507
G1 X127.932 Y94.009 E12.69276
G1 X127.932 Y94.895 E12.77351
G1 X115.858 Y82.821 E14.32977
G1 X114.973 Y82.821 E14.41043
G1 X127.932 Y95.78 E16.08076
G1 X127.932 Y96.666 E16.16151
G1 X114.087 Y82.821 E17.94604
G1 X113.201 Y82.821 E18.02679
G1 X127.932 Y97.552 E19.92552
G1 X127.932 Y98.438 E20.00627
G1 X112.315 Y82.821 E22.0192
G1 X111.429 Y82.821 E22.09995
G1 X127.932 Y99.324 E24.22708
G1 X127.932 Y100.209 E24.30774
G1 X110.543 Y82.821 E26.54901
G1 X109.658 Y82.821 E26.62967
G1 X127.932 Y101.095 E28.98508
G1 X127.932 Y101.981 E29.06583
G1 X108.772 Y82.821 E31.53544
G1 X107.886 Y82.821 E31.61619
G1 X127.932 Y102.867 E34.2
G1 X127.932 Y103.752 E34.28066
G1 X107 Y82.821 E36.9786
G1 X106.114 Y82.821 E37.05935
G1 X127.932 Y104.638 E39.87149
G1 X127.932 Y105.524 E39.95224
G1 X105.229 Y82.821 E42.87852
G1 X104.343 Y82.821 E42.95927
G1 X127.932 Y106.41 E45.99975
G1 X127.932 Y107.296 E46.0805
G1 X103.457 Y82.821 E49.23518
G1 X102.571 Y82.821 E49.31593
G1 X127.852 Y108.102 E52.57449
G1 X127.785 Y108.238 E52.58831
G1 X127.708 Y108.339 E52.59989
G1 X127.427 Y108.563 E52.63264
G1 X101.685 Y82.821 E55.95062
G1 X100.8 Y82.821 E56.03128
G1 X126.662 Y108.683 E59.36473
G1 X125.776 Y108.683 E59.44548
G1 X99.914 Y82.821 E62.77893
G1 X99.028 Y82.821 E62.85968
G1 X124.89 Y108.683 E66.19313
G1 X124.005 Y108.683 E66.27379
G1 X98.142 Y82.821 E69.60731
G1 X97.256 Y82.821 E69.68806
G1 X123.119 Y108.683 E73.02158
G1 X122.233 Y108.683 E73.10233
G1 X96.37 Y82.821 E76.43585
G1 X95.485 Y82.821 E76.51651
G1 X121.347 Y108.683 E79.84996
G1 X120.461 Y108.683 E79.93071
G1 X94.599 Y82.821 E83.26416
G1 X93.713 Y82.821 E83.34491
G1 X119.576 Y108.683 E86.67843
G1 X118.69 Y108.683 E86.75918
G1 X92.827 Y82.821 E90.0927
G1 X91.941 Y82.821 E90.17345
G1 X117.804 Y108.683 E93.50697
G1 X116.918 Y108.683 E93.58772
G1 X91.056 Y82.821 E96.92117
G1 X90.17 Y82.821 E97.00192
G1 X116.032 Y108.683 E100.33537
G1 X115.147 Y108.683 E100.41603
G1 X89.284 Y82.821 E103.74955
G1 X88.398 Y82.821 E103.8303
G1 X114.261 Y108.683 E107.16382
G1 X113.375 Y108.683 E107.24457
G1 X87.512 Y82.821 E110.57809
G1 X86.627 Y82.821 E110.65875
G1 X112.489 Y108.683 E113.9922
G1 X111.603 Y108.683 E114.07295
G1 X85.741 Y82.821 E117.4064
G1 X84.855 Y82.821 E117.48715
G1 X110.718 Y108.683 E120.82067
G1 X109.832 Y108.683 E120.90142
G1 X83.969 Y82.82 E124.235
G1 X83.083 Y82.82 E124.31575
G1 X108.946 Y108.683 E127.64933
G1 X108.06 Y108.683 E127.73008
G1 X82.197 Y82.82 E131.06366
G1 X81.312 Y82.82 E131.14432
G1 X107.179 Y108.688 E134.47848
G1 X106.745 Y108.716 E134.51812
G1 X106.396 Y108.791 E134.55065
G1 X80.426 Y82.82 E137.89809
G1 X79.54 Y82.82 E137.97884
G1 X105.721 Y109.001 E141.35341
G1 X105.556 Y109.053 E141.36918
G1 X105.129 Y109.295 E141.41391
G1 X78.654 Y82.82 E144.82637
G1 X77.768 Y82.82 E144.90712
G1 X104.611 Y109.663 E148.36702
G1 X104.17 Y110.108 E148.42412
G1 X76.883 Y82.82 E151.94131
G1 X75.997 Y82.82 E152.02206
G1 X103.798 Y110.622 E155.6055
G1 X103.544 Y111.076 E155.65291
G1 X103.498 Y111.207 E155.66556
G1 X75.111 Y82.82 E159.32447
G1 X74.225 Y82.82 E159.40522
G1 X101.311 Y109.907 E162.8965
G1 X100.973 Y109.794 E162.92898
G1 X100.722 Y109.752 E162.95217
G1 X100.226 Y109.707 E162.99756
G1 X73.339 Y82.82 E166.46313
G1 X72.96 Y82.824 E166.49767
G1 X72.747 Y82.864 E166.51742
G1 X72.589 Y82.926 E166.53289
G1 X72.57 Y82.937 E166.53489
G1 X99.376 Y109.742 E169.98995
